X:1
T:Swanwick, CM
T:Swanwick, CM
T:James Lucas (1820-?)
T:Public Domain Courtesy of the Cyber Hymnal™
C:James Lucas (1820-?)
Z:Public Domain
Z:Courtesy of the Cyber Hymnal™
%%score ( 1 2 ) ( 3 4 )
L:1/8
Q:1/4=115
M:3/4
K:Ab
V:1 treble 
V:2 treble 
V:3 bass 
V:4 bass 
V:1
 [CE]2 | [CA]4 (AB) | [Ec]4 (Ac) | ([FB]2 [EA]2) [DG]2 | [CA]4 [Ec]2 | ([Fd]2 [Ec]2) [EB]2 | %6
 ([FA]2 [EG]2) [=DF]2 | E4 [Ec]2 | (c2 B2) [EA]2 | (A2 G2) (Ae) | (e2 d2) [Ec]2 | (c2 B2) E2 | %12
 (E2 [=DF]2) [_DG]2 | ([CA]2 [EB]2) [Ec]2 | [Ed]4 [Ed]2 | [Ec]2 [DB]2 [CA]2 | ([FB]2 [EA]2) [DG]2 | %17
 [CA]4 |] %18
V:2
 x2 | x4 E2 | x4 F2 | x6 | x6 | x6 | x6 | E4 x2 | E4 x2 | E4 E2 | E4 x2 | E4 E2 | E2 x4 | x6 | x6 | %15
 x6 | x6 | x4 |] %18
V:3
 [A,,A,]2 | [A,,A,]4 ([C,A,][E,G,]) | A,4 [F,C]2 | ([D,D]2 [E,C]2) [E,B,]2 | [A,,A,]4 A,2 | %5
 A,4 [G,B,]2 | ([A,C]2 B,2) [B,,A,]2 | [E,G,]4 A,2 | (A,2 G,2) [E,C]2 | [E,B,]4 [C,A,]2 | %10
 [B,,G,]4 [A,,A,]2 | (A,2 G,2) [E,G,]2 | (G,2 A,2) [E,B,]2 | (A,2 G,2) A,2 | [G,B,]4 [E,G,]2 | %15
 A,2 [E,G,]2 [F,A,]2 | ([D,D]2 [E,C]2) [E,B,]2 | [A,,A,]4 |] %18
V:4
 x2 | x6 | A,4 x2 | x6 | x4 A,2 | A,4 x2 | x2 B,2 x2 | x4 A,2 | E,4 x2 | x6 | x6 | E,4 x2 | %12
 E,4 x2 | E,4 A,2 | x6 | A,2 x4 | x6 | x4 |] %18

